X: 1
T:Sweeney's Polka
M:2/4
L:1/8
C:Bulmer and Sharpley
R:Polka
K:D
fgfe dcdB | A2D2 F2A2 | G2E2 e2>d2 | c2B2 B2A2 |
| fgfe dcdB | A2D2 F2A2 | G2E2 e2>f2 |1 e2d2d2>e2 :|2 e2d2 d2>B2 
|: A2f2 fef2 | A2g2 gfg2 | A2f2 fef2 | efed B2A2|
A2f2 fef2 | A2g2 gfga | b2a2 faaf |1 e2d2 d2>B2 :|2 e2d2 d2>e2 :|
